X:18936
T:Wrigley
R:reel
C:Jennifer Wrigley
Z:Devin McCabe
M:4/4
L:1/8
K:EMin
DEEB, B,GFD|A,B,DA, B,DA,B,|DEEB, B,GFE|FADB FEE2:|
!ABe2 efed|BABd BAFD|EBe^d efe=d|BABd e3f|
!gbfa egfe|dBAd BAFD|DEEB, B,GFE|FADB FEE2:|


